X:1
T:While Shepherds Watched Their Flocks
T:While Shepherds Watched Their Flocks
T:George Frederick Handel, 1728
T:Nahum Tate, 1700
T:Public Domain Courtesy of the Cyber Hymnal™
C:George Frederick Handel, 1728
Z:Public Domain
Z:Courtesy of the Cyber Hymnal™
%%score ( 1 2 ) ( 3 4 )
L:1/8
Q:1/4=108
M:4/4
K:D
V:1 treble 
V:2 treble 
V:3 bass 
V:4 bass 
V:1
 ([DF]>[CG]) | [DA]2 [Fd]2 c2 [GB]2 | [DA]2 (D>[CE]) [DF]2 (F>G) | [DA]2 [DA]2 A2 ([EG][DF]) | %4
w: 1.~While *|shep- herds watched their|flocks by * night, All *|seat- ed on the *|
w: 2.~“Fear *|not!” said he, for|might- y * dread Had *|seized their trou- bled *|
w: 3.~“To *|you, in Da- vid’s|town, this * day Is *|born of Da- vid’s *|
w: 4.~“The *|heav- enly Babe you|there shall * find To *|hu- man view dis- *|
w: 5.~Thus *|spake the ser- aph|and forth- * with Ap- *|peared a shin- ing *|
w: 6.~“All *|glo- ry be to|God on * high, And *|to the Earth be *|
 ([DF]2 [CE]4) (cd) | e2 [FA]2 [EG]2 [CG]2 | [DG]2 (FE) [DF]2 (dc) | [GB]2 [FA]2 [DG]2 [DF]2 | %8
w: ground, * The *|an- gel of the|Lord came * down, And *|glo- ry shone a-|
w: mind. * “Glad *|tid- ings of great|joy I * bring To *|you and all man-|
w: line * A *|Sav- ior, who is|Christ the * Lord, And *|this shall be the|
w: played, * All *|mean- ly wrapped in|swath- ing * bands, And *|in a man- ger|
w: throng * Of *|an- gels prais- ing|God on * high, Who *|thus ad- dressed their|
w: peace; * Good *|will hence- forth from|Heav’n to * men Be- *|gin and ne- ver|
 (B2 A4) [Ee]2 | [FA]2 d2 [DF]2 [CE]2 x | !fermata!D6 |] %11
w: round, * And|glo- ry shone a-|round.|
w: kind * To|you and all man-|kind.|
w: sign, * And|this shall be the|sign.|
w: laid, * And|in a man- ger|laid.”|
w: song, * Who|thus ad- dressed their|song:|
w: cease, * Be-|gin and ne- ver|cease!”|
V:2
 x2 | x4 (EF) x2 | x6 D2 | x4 (DF) x2 | x6 A2 | (AG) x6 | x2 D2 x F2 x | x8 | D6 x2 | x2 (D>E) x5 | %10
 D6 |] %11
V:3
 A,2 | [F,A,]2 [D,A,]2 A,2 (B,C) | [F,D]2 A,2 [D,A,]2 A,2 | [F,A,]2 [D,F,]2 [F,D]2 [G,B,]2 | %4
 A,6 E2 | [C,E]2 (D=C) [E,B,]2 [A,,A,]2 | [D,A,]2 (A,G,) [D,A,]2 [D,A,]2 | %7
 D,2 (DC) [D,B,]2 [D,A,]2 | (G,2 F,4) (B,>C) | [F,D]2 ([F,A,]>[G,B,]) A,3 (z G,) | %10
 !fermata![D,F,]6 |] %11
V:4
 (D,>E,) | x4 A,2 G,2 | x2 (F,>E,) x/ (D,3/2 E,/) x3/2 | x8 | A,6 (A,,B,,) | x2 D,2 x4 | %6
 x2 D,2 x4 | x2 D,2 x4 | D,6 G,2 | x4 A,2 A,,2 x | x6 |] %11

